X:1
T:Title
T:Après un Rêve
T:G. Fauré
C:Composer
%%score 1 { 2 | 3 }
L:1/8
Q:1/4=52
M:3/4
K:D
V:1 treble nm="Mezzo-soprano" snm="MzS."
V:2 treble nm="Piano" snm="Pno"
V:3 bass 
V:1
 z2 z4 | F2!<(!!<(! B2 c2!<)!!<)! | d2- (3d c B (3d c B |!>(!!>(! B4 A2!>)!!>)! | =c E c2 B ^A | %5
w: |Dans un som-|meil * que char- mait ton i-|ma- ge|Je rê- vais le bon-|
!<(!!<(! B3 B A3/2 G/!<)!!<)! |!>(!!>(! F2- (3((((FG))A (3GAB))!>)!!>)! | F6 | %8
w: heur ar- dent mi-|ra- * * * * * *|ge.|
 F2 (3:2:2D2 E (3:2:2F2 G | A2- (3A E E (3E ^D E | G4 F2 |!<(!!<(! B2 B3 _B!<)!!<)! | A2 D2 D2 | %13
w: Tes yeux é- taient plus|doux, * ta voix pure et so-|no- re.|Tu ray- on-|nais comme un|
 E2- (3E!>(!!>(! =F G (3F!>)!!>)! G A | A4 D2 | z2 z4 |!<(!!<(! F2 B2 c2!<)!!<)! | %17
w: ciel, * é- clai- ré par l'au-|ro- re,||Tu m'ap- pe-|
 d2- (3d c B (3d c B |!>(!!>(! B4 A2!>)!!>)! | =c E c2 B ^A | B3 B A G | F2- (3((FGA (3GAB)) | F6 | %23
w: lais * et je quit- tais la|ter- re|pour m'en- fuir a- vec|toi vers la lu-|miè- * * * * * *|re|
 F2 (3:2:2((D2 E)) (3:2:2((F2 G)) | A3 E (3E ^D E | G2 F2 B,2 | =C2- (3((CDE)) (3((DE)) F | %27
w: Les cieux * pour *|nous entr'- ouv- raient leurs|nu- es splen-|deurs * * * in- * con-|
 F2 B,2 ^D2 | (3:2:2E2 E (3((EF)) G (3((AG)) A | B2 B,2 B2 |!f!!f! e4!mf!!mf! E2 | %31
w: nu- es, lu-|eurs di- vi- * nes en- * tre-|vu- es, Hé-|las! Hé-|
 E2 (3E F ^G (3((AB)) =c | =c2-!>(!!>(! (3((cBd (3cBA))!>)!!>)! | =c4!<(!!<(! A3/2 A/!<)!!<)! | %34
w: las, tris- te ré- veil * des|son- * * * * \-- *|ges. Je t'ap-|
 d4 =c2 | =c2- (3((cB)) G (3G F E | F2-!>(!!>(! (3FGF (3EFG!>)!!>)! | F4 F2 |!<(!!<(! B4 B2 | %39
w: pelle, ô|nuit, * * rends moi tes men-|son- * * \-- * \-- *|ges, Re-|viens, re-|
 B4 B3/2!<)!!<)! c/ |!f!!f! d6 |!>(!!>(! c4 c2!>)!!>)! |!p!!p! c4 B2 | A3 F D E | %44
w: viens ra- di-|eu-|se, Re-|viens, ô|nuit my- té- ri-|
!pp!!pp! F2- (3((FED (3EFG | F6)) | B,6 | z6 |] %48
w: eu- * * \-- * * *|\--|se!||
V:2
 [B,DF][B,DF] [B,DF][B,DF] [B,DF][B,DF] | [B,DF][B,DF] [B,DF][B,DF] [A,CDF][A,CDF] | %2
 [^G,B,DF][G,B,DF] [G,B,DF][G,B,DF] [G,B,DE][G,B,DE] | %3
 [G,B,CE][G,B,CE] [G,B,CE][G,B,CE] [G,A,CE][G,A,CE] | [G,=CE][G,CE] [G,CE][G,CE] [F,C_E][F,CE] | %5
 [G,B,^D][G,B,D] [G,B,D][G,B,D] [G,B,E][G,B,E] | %6
 [E,F,^A,C][E,F,A,C] [E,F,A,C][E,F,A,C] [E,G,B,C][E,G,B,C] | %7
 [E,F,^A,C][E,F,A,C] [E,F,A,C][E,F,A,C] [E,F,A,C][E,F,A,C] | %8
 [F,B,D][F,B,D] [F,B,D][F,B,D] [F,B,D][F,B,D] | [E,A,E][E,A,E] [E,A,E][E,A,E] [E,A,E][E,A,E] | %10
 [G,=CE][G,CE] [G,CE][G,CE] [F,C^D][F,CD] | [E,B,E][E,B,E] [E,B,D][E,B,D] [E,B,C][E,_B,C] | %12
 [D,A,D][D,A,D] [D,A,D][D,A,D] [F,B,D][F,B,D] | [G,DE][G,DE] [G,DE][G,DE] [G,CE][G,CE] | %14
 [F,A,DF][F,A,DF] [F,A,DF][F,A,DF] [F,A,DF][F,A,DF] | %15
 [F,^A,DF][F,A,DF] [F,A,DF][F,A,DF] [E,A,CF][E,A,CF] | [D,B,F][B,DF] [B,DF][B,DF] [A,CDF][A,CDF] | %17
 [^G,B,DF][G,B,DF] [G,B,DF][G,B,DF] [G,B,DE][G,B,DE] | %18
 [G,B,CE][G,B,CE] [G,B,CE][G,B,CE] [G,A,CE][G,A,CE] | [G,=CE][G,CE] [G,CE][G,CE] [G,C_E][G,CE] | %20
 [G,B,^D][G,B,D] [G,B,D][G,B,D] [G,B,E][G,B,E] | %21
 [E,F,^A,C][E,F,A,C] [E,F,A,C][E,F,A,C] [E,G,B,C][E,G,B,C] | %22
 [E,F,^A,C][E,F,A,C] [E,F,A,C][E,F,A,C] [E,F,A,C][E,F,A,C] | %23
 [F,B,D][F,B,D] [F,B,D][F,B,D] [F,B,D][F,B,D] | [E,A,E][E,A,E] [E,A,E][E,A,E] [E,A,E][E,A,E] | %25
 [G,B,][G,B,] [F,A,B,][F,A,B,] [F,A,B,][F,A,B,] | %26
 [E,G,=C][E,G,C] [E,G,C][E,G,B,] [E,F,B,][E,F,^A,] | %27
 [^D,F,B,][D,F,B,] [D,F,B,][D,F,B,] [D,F,B,][D,F,B,] | %28
 [E,B,=C][E,B,C] [E,B,C][E,B,^B,] [G,B,^C][G,B,C] | [F,B,^D][F,B,D] [F,B,D][F,B,D] [F,B,D][F,B,D] | %30
 [E,B,DE][E,B,DE] [E,B,DE][E,B,DE] [DEB][DEB] | [DEB][DEB] [=CEA][CEA] [B,EG][B,EG] | %32
 [A,=CEF][A,CEF] [A,CEF][A,CEF] [A,CEG][A,CEG] | [A,=CDF][A,CDF] [DF][DF] [CDF][CDF] | %34
 [B,DF][B,DF] [A,DF][A,DF] [G,A,=CE][G,A,CE] | %35
 [F,A,=CE][F,A,CE] [F,A,C^D][F,A,^CD] [G,B,E][G,B,E] | [F,CE][F,CE] [F,CE][F,CE] [G,CE][G,CE] | %37
 [F,CE][F,CE] [F,^A,D][F,A,D] [F,A,C][F,A,C] | [F,B,][F,B,] [E,B,C][E,B,C] [A,B,^D][A,B,D] | %39
 [G,B,E][G,B,E] [B,F][B,F] [B,^E^G][B,EG] | [A,DA][A,DA] [DEB][DEB] [B,DE][B,DE] | %41
 [CEG][CEG] [CEF][CEF] [G,CE][G,CE] | [G,CE][G,CE] [F,CE][F,CE] [F,B,D][F,B,D] | %43
 [F,A,D][F,A,D] [F,A,D][F,A,D] [F,A,D][F,A,D] | %44
 [E,F,^A,D][E,F,A,D] [E,F,A,C][E,F,A,C] [D,F,B,][D,F,B,] | %45
 [C,F,B,][C,F,B,] [C,F,^A,][C,F,A,] [C,E,F,A,][C,E,F,A,] | %46
 [D,F,B,][D,F,B,] [D,F,B,][D,F,B,] [D,F,B,][D,F,B,] | [D,F,B,]4 z2 |] %48
V:3
!pp!!pp! z2 z4 | z2 z4 | (((([E,,,E,,]6 | [A,,,A,,]6)))) | [D,,,D,,]6 | [G,,,G,,]4 [C,,,C,,]2 | %6
 [F,,,F,,]6- | [F,,,F,,]6 | [B,,,B,,]6 | [=C,,^B,,]6 | [A,,,A,,]6 | [G,,,G,,]6 | %12
 [F,,,F,,]4 [B,,,B,,]2 | [_B,,,_B,,]2 [A,,,A,,]4 | [D,,,D,,]6 | [F,,,F,,]6 | [B,,,B,,]6 | %17
 [E,,,E,,]6 | [A,,,A,,]6 | [D,,,D,,]6 | [G,,,G,,]4 [C,,,C,,]2 | [F,,,F,,]6 | [F,,,F,,]6 | %23
 [B,,,B,,]6 | [=C,,=C,]6 | ^D,,6 | E,,4 F,,2 | B,,,6 | [G,,,G,,]4 [E,,,E,,]2 | %29
!<(!!<(! [B,,,B,,]4 [A,,,A,,]2!<)!!<)! | [^G,,,^G,,]6 |!>(!!>(! [A,,,A,,]6!>)!!>)! | [D,,D,]6- | %33
 [D,,D,]2 z4 | z2 z4 | z2 B,,2 E,,2 |!>(!!>(! ^A,,4 B,,2!>)!!>)! | ^A,,2 F,,2 E,,2 | %38
!<(!!<(! D,,2 G,,2 F,,2 | E,,2 D,,2 C,,2!<)!!<)! |!f!!f! F,,2 ^G,,4 | A,,2 ^A,,4 | %42
!p!!p! B,,4 B,,,2 | D,,4 [F,,,F,,]2- |!pp!!pp! [F,,,F,,]6- | [F,,,F,,]6 | %46
 [B,,,,B,,,]4 [B,,,,B,,,]2 | [B,,,,B,,,]4 z2 |] %48

